components/ui-node-icon/src/xlsFile/xlsFile.large.svg

<svg width="32" height="32" viewBox="0 0 32 32" fill="none" xmlns="http://www.w3.org/2000/svg">
  <path fill-rule="evenodd" clip-rule="evenodd" d="M5 7C5 4.79086 6.79086 3 9 3H23L23.0079 3.00001H21L27 9.00001L27 25C27 27.2091 25.2091 29 23 29H9C6.79086 29 5 27.2091 5 25V7ZM11 13H15.5V17H10V14C10 13.4477 10.4477 13 11 13ZM16.5 12H15.5H11C9.89543 12 9 12.8954 9 14V17V18V21C9 22.1046 9.89543 23 11 23H15.5H16.5H21C22.1046 23 23 22.1046 23 21V18V17V14C23 12.8954 22.1046 12 21 12H16.5ZM21 22H16.5V18H22V21C22 21.5523 21.5523 22 21 22ZM15.5 22V18H10V21C10 21.5523 10.4477 22 11 22H15.5ZM22 17H16.5V13H21C21.5523 13 22 13.4477 22 14V17Z" fill="var(--tbl--colors--icons--clean--primary)"/>
  <path d="M21 7V3L27 9H23C21.8954 9 21 8.10457 21 7Z" fill="white" fill-opacity="0.5"/>
</svg>

<svg xmlns="http://www.w3.org/2000/svg" width="32" height="32" fill="none" viewBox="0 0 32 32">
  <path fill="var(--tbl--colors--icons--clean--primary)" fill-rule="evenodd" d="M5 7a4 4 0 0 1 4-4h14.008H21l6 6v16a4 4 0 0 1-4 4H9a4 4 0 0 1-4-4V7Zm6 6h4.5v4H10v-3a1 1 0 0 1 1-1Zm5.5-1H11a2 2 0 0 0-2 2v7a2 2 0 0 0 2 2h10a2 2 0 0 0 2-2v-7a2 2 0 0 0-2-2h-4.5ZM21 22h-4.5v-4H22v3a1 1 0 0 1-1 1Zm-5.5 0v-4H10v3a1 1 0 0 0 1 1h4.5Zm6.5-5h-5.5v-4H21a1 1 0 0 1 1 1v3Z" clip-rule="evenodd"/>
  <path fill="#fff" fill-opacity=".5" d="M21 7V3l6 6h-4a2 2 0 0 1-2-2Z"/>
</svg>
